X:515
T:MacPherson's Rant
C:Joe Buchanan's Scottish Tome - Page 001.1
I:001 1
C:Trad.
R:Reel
Z:Carl Allison
M:2/4
L:1/8
K:G
GD BA/G/|A/G/A/B/ AD/E/|GD BA/G/|E2 ED/D/|
GD BA/G/|A/G/A/B/ AD/E/|GD BA/G/|E2 EB/c/|
dB c/B/A/G/|BA  AB/c/|dB AG|E2 EB/c/|
dB c/B/A/G|BA  AB|GB AGE|D2 D:|

